docs/svgs/text-select-move-back-word-sharp-filled.svg

<svg xmlns="http://www.w3.org/2000/svg" width="24" height="24" viewBox="0 0 24 24"><path d="M11 5V3h2v2h-2Zm0 16v-2h2v2h-2ZM7 5V3h2v2H7Zm0 16v-2h2v2H7ZM3 5V3h2v2H3Zm0 16v-2h2v2H3Zm4-5l-4-4l4-4l1.4 1.4L6.825 11H13v2H6.825L8.4 14.6L7 16Zm8 5V3h6v18h-6Z"/></svg>

<?xml version="1.0" encoding="UTF-8"?>
<svg xmlns="http://www.w3.org/2000/svg" xmlns:xlink="http://www.w3.org/1999/xlink" width="24px" height="24px" viewBox="0 0 24 24" version="1.1">
<g id="surface1">
<path style=" stroke:none;fill-rule:nonzero;fill:rgb(0%,0%,0%);fill-opacity:1;" d="M 11 5 L 11 3 L 13 3 L 13 5 Z M 11 21 L 11 19 L 13 19 L 13 21 Z M 7 5 L 7 3 L 9 3 L 9 5 Z M 7 21 L 7 19 L 9 19 L 9 21 Z M 3 5 L 3 3 L 5 3 L 5 5 Z M 3 21 L 3 19 L 5 19 L 5 21 Z M 7 16 L 3 12 L 7 8 L 8.398438 9.398438 L 6.824219 11 L 13 11 L 13 13 L 6.824219 13 L 8.398438 14.601562 Z M 15 21 L 15 3 L 21 3 L 21 21 Z M 15 21 "/>
</g>
</svg>
